X: 46
T: Braes of Mar
%R: reel
B: Urbani & Liston "A Selection of Scotch, English Irish, and Foreign Airs", Edinburgh 1800, p.18 #2
F: http://www.vwml.org/browse/browse-collections-dance-tune-books/browse-urbani1800
Z: 2014 John Chambers <jc:trillian.mit.edu>
N: The rhythms at the strain boundaries aren't all correct; not fixed.
M: C|
L: 1/8
K: D
f2 |\
d/d/d df dedf | E/E/E TB>A BEBe |\
d/d/d d>f d>efg | aAFD TE2D :|
|:\
FAAB/c/ dAFD | G>BF>A E/E/E BE |\
F>AD>B A>Bcd | fdg>f Te2d2 :|

%%sep 1 1 500
%%sep 1 1 500
